X:2

T:White Jack

M:6/8

L:1/8

R:Jig

S:William Vickers music manuscripts, pg. 50  (1770)

Z:AK/Fiddler’s Companion

K:D

d2e fed|dcB AGF|B2B Bcd|AFD DFA|G2A BAG|FDF D2E|

G2A BAG|FEF D3:||:ABA ABA|def fed|ABA ABA|def fed|B2d B2d|

F2F E2A|B2B Bcd|AFD DFA|G2A BAG|FEF D2F|G2A BAG|FEF D3:|

                       

WHITE LADIES ASTON. English, Morris Dance Tune (time). G Major. Standard. One part. Collected from the village of White Ladies Aston, Worcestershire, England. Bacon (The Morris Ring), 1974; pg. 313.

 

WHITE LEAF (An Duilleog Bhán). Irish, Reel. A Major (Miller & Perron): G Major (Breathnach). Standard. AABB. May have been composed by Oliver O'Higgins. “The White Leaf” seems similar to the well-known “Mason’s Apron” and may be a variant. Source for notated version: the mid-20th century collection of Jack Wade (County Monaghan), who included the note “This is the old way of playing it. It is played quite differently now like many more” [Breathnach]. See also the variant “The Tinker’s Bib,” sometimes called “The Green Leaf.”  Source for notated version: Oliver O’Higgins (Cloon, County Leitrim) [Miller & Perron]. Breathnach (CRÉ IV), 1996; No. 191, pgs. 88-89. Bulmer & Sharpley (Music from Ireland), vol. 4, No. 26. Miller & Perron (Irish Traditional Fiddle Music), 1977; Addenda. Miller & Perron (Irish Traditional Fiddle Music), 2nd Edition, 2006; pg. 109. Cló Iar-Chonnachta CICD 173, Brian Conway – “Consider the Source” (2008). Green Linnet GLCD 1227, Oisín Mac Diarmada – “Ar an bhFidil” (2004).

See also listings at:

Alan Snyder’s Cape Breton Fiddle Recording Index

Jane Keefer’s Folk Music Index: An Index to Recorded Sources 

Alan Ng’s Irishtune.info

